actions/22x22-dark/office-chart-polar-stacked.svg

<svg xmlns="http://www.w3.org/2000/svg" viewBox="0 0 22 22">
 <defs id="defs3051">
   <style type="text/css" id="current-color-scheme">
     .ColorScheme-Text {
       color:#f2f2f2;
     }
     </style>
 </defs>
   <path
      style="fill:currentColor;fill-opacity:1;stroke:none"
      d="m11 3c-4.432 0-8 3.568-8 8s3.568 8 8 8 8-3.568 8-8-3.568-8-8-8zm0 1c1.365929 0 2.634027.3931964 3.708984 1.0644531l-2.65039 4.2421875c.519459.3248556.870291.8812664.923828 1.5273434l4.988281-.416015c.015774.192614.029297.385213.029297.582031 0 3.878-3.122 7-7 7s-7-3.122-7-7 3.122-7 7-7zm0 1c-1.9014407 0-3.5877931.8783098-4.6855469 2.25l3.1289063 2.5039062c.3659329-.4568104.9231646-.7539062 1.5566406-.7539062v-.5-2zm-1.4160156 7.416016-2.1230469 2.123046c.90375.903751 2.1540625 1.460938 3.5390625 1.460938v-1.5-1.5c-.554 0-1.0545156-.222484-1.4160156-.583984z"
      class="ColorScheme-Text" />
</svg>

<svg xmlns="http://www.w3.org/2000/svg" viewBox="0 0 22 22">
  <defs id="defs3051">
    <style type="text/css" id="current-color-scheme">
      .ColorScheme-Text {
        color:#f2f2f2;
      }
      .ColorScheme-Highlight {
        color:#3daee9;
      }
      </style>
  </defs>
 <path 
     style="fill:currentColor;fill-opacity:1;stroke:none" 
     d="M 11 3 C 6.568 3 3 6.568 3 11 C 3 15.432 6.568 19 11 19 C 15.432 19 19 15.432 19 11 C 19 6.568 15.432 3 11 3 z M 11 4 C 12.365929 4 13.634027 4.3931964 14.708984 5.0644531 L 12.058594 9.3066406 C 12.578053 9.6314962 12.928885 10.187907 12.982422 10.833984 L 17.970703 10.417969 C 17.986477 10.610583 18 10.803182 18 11 C 18 14.878 14.878 18 11 18 C 7.122 18 4 14.878 4 11 C 4 7.122 7.122 4 11 4 z M 11 5 C 9.0985593 5 7.4122069 5.8783098 6.3144531 7.25 L 9.4433594 9.7539062 C 9.8092923 9.2970958 10.366524 9 11 9 L 11 8.5 L 11 6.5 L 11 5 z M 9.5839844 12.416016 L 7.4609375 14.539062 C 8.3646875 15.442813 9.615 16 11 16 L 11 14.5 L 11 13 C 10.446 13 9.9454844 12.777516 9.5839844 12.416016 z "
     class="ColorScheme-Text"
     />
</svg>
